!! 00000] TT[WS
!!!OTL: Shier biao
!!!ARE: Asia, China, Shanxi Ningwu
!! Ethnic Group: Han
!! WII, 135
!!!SCT: J0608
!!!YEM: Copyright 1995, estate of Helmut Schaffrath.
**kern
*ICvox
*Ivox
*M2/4
*k[f#c#g#]
*A:
{8ee
8ff#
8cc#
8b
=1
8ee
8ff#
8cc#
8b
=2
8ee
8cc#
8ee
8ff#
=3
4b
4b}
=4
{8b
8cc#
8ee
8ee
=5
8ee
8cc#
4b
=6
4.g#
8f#
=7
4e
4e}
=8
{4.e
8c#
=9
4e
4e
=10
8ee
8cc#
8b
8cc#
=11
4c#
4e}
=12
{8b
8cc#
4b
=13
8g#
8f#
4e
=14
8b
8cc#
4b
=15
8g#
8f#
4e
=16
8g#
8b
8f#
8g#
=17
2b}
=18
{8b
8cc#
4ee
=19
8ee
8cc#
4b
=20
8b
8ee
8g#
8f#
=21
8e
4g#
8f#
=22
2e}
==
!!!AGN: Xiaodiao. Qingge, Aisu
!!!ONB: ESAC (Essen Associative Code) Database: CHINA
!!!AMT: simple duple
!!!AIN: vox
!!!EED: Helmut Schaffrath
!!!EEV: 1.0
*-
